Numix-Light/16/status/indicator-keyboard-En-7.svg

<?xml version="1.0" encoding="UTF-8" standalone="no"?>
<svg
   xmlns:dc="http://purl.org/dc/elements/1.1/"
   xmlns:cc="http://creativecommons.org/ns#"
   xmlns:rdf="http://www.w3.org/1999/02/22-rdf-syntax-ns#"
   xmlns:svg="http://www.w3.org/2000/svg"
   xmlns="http://www.w3.org/2000/svg"
   xmlns:sodipodi="http://sodipodi.sourceforge.net/DTD/sodipodi-0.dtd"
   xmlns:inkscape="http://www.inkscape.org/namespaces/inkscape"
   viewBox="0 0 16 16"
   id="svg2"
   version="1.1"
   inkscape:version="0.91 r13725"
   sodipodi:docname="indicator-keyboard-En-7.svg">
  <metadata
     id="metadata14">
    <rdf:RDF>
      <cc:Work
         rdf:about="">
        <dc:format>image/svg+xml</dc:format>
        <dc:type
           rdf:resource="http://purl.org/dc/dcmitype/StillImage" />
      </cc:Work>
    </rdf:RDF>
  </metadata>
  <defs
     id="defs12" />
  <sodipodi:namedview
     pagecolor="#ffffff"
     bordercolor="#666666"
     borderopacity="1"
     objecttolerance="10"
     gridtolerance="10"
     guidetolerance="10"
     inkscape:pageopacity="0"
     inkscape:pageshadow="2"
     inkscape:window-width="459"
     inkscape:window-height="369"
     id="namedview10"
     showgrid="false"
     inkscape:zoom="14.75"
     inkscape:cx="8"
     inkscape:cy="8"
     inkscape:window-x="65"
     inkscape:window-y="24"
     inkscape:window-maximized="0"
     inkscape:current-layer="svg2" />
  <path
     style="fill:#353535;fill-opacity:1"
     d="M 1.5996094 0 C 0.71320937 2.9605947e-16 0 0.71320937 0 1.5996094 L 0 14.400391 C 2.9605947e-16 15.286791 0.71320937 16 1.5996094 16 L 14.400391 16 C 15.286791 16 16 15.286791 16 14.400391 L 16 1.5996094 C 16 0.71320937 15.286791 0 14.400391 0 L 1.5996094 0 z M 1.9179688 4.859375 L 5.5175781 4.859375 L 5.5175781 5.390625 L 2.5292969 5.390625 L 2.5292969 7.5585938 L 5.1933594 7.5585938 L 5.1933594 8.0800781 L 2.5292969 8.0800781 L 2.5292969 10.564453 L 5.7519531 10.564453 L 5.7519531 11.095703 L 1.9179688 11.095703 L 1.9179688 4.859375 z M 8.65625 6.3535156 C 9.01025 6.3535156 9.3050625 6.4038594 9.5390625 6.5058594 C 9.7790625 6.6078594 9.9674691 6.7552656 10.105469 6.9472656 C 10.249469 7.1332656 10.352109 7.3570938 10.412109 7.6210938 C 10.472109 7.8850938 10.501953 8.1761406 10.501953 8.4941406 L 10.501953 11.095703 L 9.9160156 11.095703 L 9.9160156 8.6835938 C 9.9160156 8.3535938 9.89175 8.0756562 9.84375 7.8476562 C 9.80175 7.6196563 9.7271406 7.4330625 9.6191406 7.2890625 C 9.5171406 7.1450625 9.3790781 7.0424219 9.2050781 6.9824219 C 9.0370781 6.9164219 8.8244062 6.8847656 8.5664062 6.8847656 C 8.2904062 6.8847656 8.0497031 6.8996875 7.8457031 6.9296875 C 7.6477031 6.9596875 7.5189844 6.9857656 7.4589844 7.0097656 L 7.4589844 11.095703 L 6.875 11.095703 L 6.875 6.6054688 C 7.049 6.5574688 7.2821719 6.5033594 7.5761719 6.4433594 C 7.8701719 6.3833594 8.23025 6.3535156 8.65625 6.3535156 z M 11.619141 8.8417969 L 14.082031 8.8417969 L 14.082031 9.1816406 C 13.949431 9.3415406 13.802478 9.5551188 13.642578 9.8242188 C 13.486578 10.089419 13.339619 10.391163 13.199219 10.726562 C 13.058819 11.058062 12.935378 11.410756 12.830078 11.785156 C 12.728678 12.159556 12.665978 12.529884 12.642578 12.896484 L 12.238281 12.896484 C 12.261681 12.572784 12.320462 12.229888 12.414062 11.867188 C 12.511562 11.504488 12.629125 11.1518 12.765625 10.8125 C 12.906025 10.4732 13.056897 10.161653 13.216797 9.8769531 C 13.380597 9.5922532 13.537353 9.3649594 13.689453 9.1933594 L 11.619141 9.1933594 L 11.619141 8.8417969 z "
     id="path4" />
</svg>

<svg xmlns="http://www.w3.org/2000/svg" viewBox="0 0 16 16">
 <path d="m 1.6 0 c -0.886 0 -1.6 0.713 -1.6 1.6 l 0 12.801 c 0 0.886 0.713 1.6 1.6 1.6 l 12.801 0 c 0.886 0 1.6 -0.713 1.6 -1.6 l 0 -12.801 c 0 -0.886 -0.713 -1.6 -1.6 -1.6 l -12.801 0 z m 0.318 4.859 l 3.6 0 l 0 0.531 l -2.988 0 l 0 2.168 l 2.664 0 l 0 0.521 l -2.664 0 l 0 2.484 l 3.223 0 l 0 0.531 l -3.834 0 l 0 -6.236 z m 6.738 1.494 c 0.354 0 0.649 0.05 0.883 0.152 c 0.24 0.102 0.428 0.249 0.566 0.441 c 0.144 0.186 0.247 0.41 0.307 0.674 c 0.06 0.264 0.09 0.555 0.09 0.873 l 0 2.602 l -0.586 0 l 0 -2.412 c 0 -0.33 -0.024 -0.608 -0.072 -0.836 c -0.042 -0.228 -0.117 -0.415 -0.225 -0.559 c -0.102 -0.144 -0.24 -0.247 -0.414 -0.307 c -0.168 -0.066 -0.381 -0.098 -0.639 -0.098 c -0.276 0 -0.517 0.015 -0.721 0.045 c -0.198 0.03 -0.327 0.056 -0.387 0.08 l 0 4.086 l -0.584 0 l 0 -4.49 c 0.174 -0.048 0.407 -0.102 0.701 -0.162 c 0.294 -0.06 0.654 -0.09 1.08 -0.09 z m 2.963 2.488 l 2.463 0 l 0 0.34 c -0.133 0.16 -0.28 0.373 -0.439 0.643 c -0.156 0.265 -0.303 0.567 -0.443 0.902 c -0.14 0.332 -0.264 0.684 -0.369 1.059 c -0.101 0.374 -0.164 0.745 -0.188 1.111 l -0.404 0 c 0.023 -0.324 0.082 -0.667 0.176 -1.029 c 0.098 -0.363 0.215 -0.715 0.352 -1.055 c 0.14 -0.339 0.291 -0.651 0.451 -0.936 c 0.164 -0.285 0.321 -0.512 0.473 -0.684 l -2.07 0 l 0 -0.352 z" style="fill:#353535;fill-opacity:1"/>
</svg>
